T: Both Meat And Drink
M: 6/8
L: 1/8
K: Gmaj
D2 F A^GA | BAF GEA | DFA dcd | fed cec |dBd cAc | BGB dcB | c^Bc edc | dAF G2 :|dcd dcd | AFD DFA | =cBc cBc | edc Ace |dcd fed | cec dAF | GEA FDA | EFE D2 :||: DGB d^cd | edB cAF | GB/c/d g2 a | bag f/g/af |geg fdf | e2 c gfe | f^ef agf | g2 B cAF :||: g2 f gfg | d2 G GFG | =f2 e fef | agf daf |g2 a bag | f/g/af gdB | cAG FGA | AGF G3 :|
